client/src/assets/images/Team/instagram.svg

<xml version="1.0" encoding="iso-8859-1">
<!DOCTYPE svg PUBLIC "-//W3C//DTD SVG 1.1//EN" "http://www.w3.org/Graphics/SVG/1.1/DTD/svg11.dtd">
<svg fill="#000000" version="1.1" id="Layer_1" xmlns="http://www.w3.org/2000/svg" xmlns:xlink="http://www.w3.org/1999/xlink" 
	 width="800px" height="800px" viewBox="0 0 169.063 169.063"
	 xml:space="preserve">
<g>
	<path d="M122.406,0H46.654C20.929,0,0,20.93,0,46.655v75.752c0,25.726,20.929,46.655,46.654,46.655h75.752
		c25.727,0,46.656-20.93,46.656-46.655V46.655C169.063,20.93,148.133,0,122.406,0z M154.063,122.407
		c0,17.455-14.201,31.655-31.656,31.655H46.654C29.2,154.063,15,139.862,15,122.407V46.655C15,29.201,29.2,15,46.654,15h75.752
		c17.455,0,31.656,14.201,31.656,31.655V122.407z"/>
	<path d="M84.531,40.97c-24.021,0-43.563,19.542-43.563,43.563c0,24.02,19.542,43.561,43.563,43.561s43.563-19.541,43.563-43.561
		C128.094,60.512,108.552,40.97,84.531,40.97z M84.531,113.093c-15.749,0-28.563-12.812-28.563-28.561
		c0-15.75,12.813-28.563,28.563-28.563s28.563,12.813,28.563,28.563C113.094,100.281,100.28,113.093,84.531,113.093z"/>
	<path d="M129.921,28.251c-2.89,0-5.729,1.17-7.77,3.22c-2.051,2.04-3.23,4.88-3.23,7.78c0,2.891,1.18,5.73,3.23,7.78
		c2.04,2.04,4.88,3.22,7.77,3.22c2.9,0,5.73-1.18,7.78-3.22c2.05-2.05,3.22-4.89,3.22-7.78c0-2.9-1.17-5.74-3.22-7.78
		C135.661,29.421,132.821,28.251,129.921,28.251z"/>
</g>
</svg>

<svg width="170" height="170" viewBox="0 0 170 170" fill="inherit" xmlns="http://www.w3.org/2000/svg">
<path d="M122.406 0H46.654C20.929 0 0 20.93 0 46.655V122.407C0 148.133 20.929 169.062 46.654 169.062H122.406C148.133 169.062 169.062 148.132 169.062 122.407V46.655C169.063 20.93 148.133 0 122.406 0ZM154.063 122.407C154.063 139.862 139.862 154.062 122.407 154.062H46.654C29.2 154.063 15 139.862 15 122.407V46.655C15 29.201 29.2 15 46.654 15H122.406C139.861 15 154.062 29.201 154.062 46.655V122.407H154.063Z" fill="inherit"/>
<path d="M84.531 40.97C60.51 40.97 40.968 60.512 40.968 84.533C40.968 108.553 60.51 128.094 84.531 128.094C108.552 128.094 128.094 108.553 128.094 84.533C128.094 60.512 108.552 40.97 84.531 40.97ZM84.531 113.093C68.782 113.093 55.968 100.281 55.968 84.532C55.968 68.782 68.781 55.969 84.531 55.969C100.281 55.969 113.094 68.782 113.094 84.532C113.094 100.281 100.28 113.093 84.531 113.093Z" fill="inherit"/>
<path d="M129.921 28.251C127.031 28.251 124.192 29.421 122.151 31.471C120.1 33.511 118.921 36.351 118.921 39.251C118.921 42.142 120.101 44.981 122.151 47.031C124.191 49.071 127.031 50.251 129.921 50.251C132.821 50.251 135.651 49.071 137.701 47.031C139.751 44.981 140.921 42.141 140.921 39.251C140.921 36.351 139.751 33.511 137.701 31.471C135.661 29.421 132.821 28.251 129.921 28.251Z" fill="inherit"/>
</svg>
